rospo-icon-theme-classic-common/16x16/apps/cryptomator.svg

<svg height="16" viewBox="0 0 16 16" width="16" xmlns="http://www.w3.org/2000/svg"><g transform="translate(0 -1036.3622)"><path d="m7.9999998 1036.3622c-2.7614236 0-4.9999998 2.2385-4.9999998 5v5h4.9999998 5.0000002v-5c0-2.7615-2.238577-5-5.0000002-5zm0 2c1.8409496 0 2.8167932 1.1679 3.0000002 3v3.3333h-3.0000002-2.9999998v-3.3333c0-1.8412 1.1590503-3 2.9999998-3z" fill="#e4e4e4"/><g fill-rule="evenodd"><path d="m2.8571541 1042.3627s-.8571411-.048-.8571411.8451v3.6362c.7645513 3.1674 2.6094497 3.9352 4.0454714 4.8424.5140857.3249 1.2297645.6785 1.9545157.6758.7247512 0 1.4404301-.3509 1.9545158-.6758 1.4360221-.9072 3.2809201-1.675 4.0454711-4.8424v-3.6362c0-.8928-.857141-.8451-.857141-.8451h-5.1428459z" fill="#385455"/><g fill="#a2db44"><path d="m4 10-1.8398438.998047c.4409954 1.434819 1.117716 2.329518 1.8652344 2.966797l1.9746094-1.964844-.5-1-1 .5z" transform="translate(0 1036.3622)"/><path d="m7 12.5-1.5820312 2.439453c.2111094.127349.4276173.258836.6269531.384766.2648254.167368.5841872.340732.9296875.470703l.5253906-2.794922z" transform="translate(0 1036.3622)"/><path d="m3 1043.3622v2h2v-1z"/></g></g><path d="m8 7a1 1 0 0 0 -1 1 1 1 0 0 0  .6835938.9472656l-.6835938 2.0527344 1 .5 1-.5-.6835938-2.0527344a1 1 0 0 0  .6835938-.9472656 1 1 0 0 0 -1-1z" opacity=".3" transform="translate(0 1036.3622)"/><g fill="#a2db44" fill-rule="evenodd"><path d="m12 1046.3622 1.839844.998c-.440996 1.4349-1.117716 2.3296-1.865235 2.9668l-1.974609-1.9648.5-1 1 .5z"/><path d="m9 1048.8622 1.582031 2.4395c-.211109.1273-.427617.2588-.6269529.3847-.2648254.1674-.5841872.3408-.9296875.4707l-.5253906-2.7949z"/><path d="m13 1043.3622v2h-2v-1z"/></g></g></svg>

<svg xmlns="http://www.w3.org/2000/svg" width="16" height="16" version="1.1" viewBox="0 0 16 16">
 <g transform="translate(0,-1036.3622)">
  <path style="fill:#cccccc" d="m 7.9999998,1036.3622 c -2.7614236,0 -4.9999998,2.2385 -4.9999998,5 l 0,5 4.9999998,0 5.0000002,0 0,-5 c 0,-2.7615 -2.238577,-5 -5.0000002,-5 z m 0,2 c 1.8409496,0 2.8167932,1.1679 3.0000002,3 l 0,3.3333 -3.0000002,0 -2.9999998,0 0,-3.3333 c 0,-1.8412 1.1590503,-3 2.9999998,-3 z"/>
  <path style="fill:#385455;fill-rule:evenodd" d="m 2.8571541,1042.3627 c 0,0 -0.8571411,-0.048 -0.8571411,0.8451 l 0,3.6362 c 0.7645513,3.1674 2.6094497,3.9352 4.0454714,4.8424 0.5140857,0.3249 1.2297645,0.6785 1.9545157,0.6758 0.7247512,0 1.4404301,-0.3509 1.9545158,-0.6758 1.4360221,-0.9072 3.2809201,-1.675 4.0454711,-4.8424 l 0,-3.6362 c 0,-0.8928 -0.857141,-0.8451 -0.857141,-0.8451 l -5.1428459,0 z"/>
  <path style="fill:#a2db44;fill-rule:evenodd" d="M 4 10 L 2.1601562 10.998047 C 2.6011516 12.432866 3.2778722 13.327565 4.0253906 13.964844 L 6 12 L 5.5 11 L 4.5 11.5 L 4 10 z" transform="translate(0,1036.3622)"/>
  <path style="fill:#a2db44;fill-rule:evenodd" d="M 7 12.5 L 5.4179688 14.939453 C 5.6290782 15.066802 5.8455861 15.198289 6.0449219 15.324219 C 6.3097473 15.491587 6.6291091 15.664951 6.9746094 15.794922 L 7.5 13 L 7 12.5 z" transform="translate(0,1036.3622)"/>
  <path style="fill:#a2db44;fill-rule:evenodd" d="m 3,1043.3622 0,2 2,0 0,-1 z"/>
  <path style="opacity:0.3" d="M 8 7 A 1 1 0 0 0 7 8 A 1 1 0 0 0 7.6835938 8.9472656 L 7 11 L 8 11.5 L 9 11 L 8.3164062 8.9472656 A 1 1 0 0 0 9 8 A 1 1 0 0 0 8 7 z" transform="translate(0,1036.3622)"/>
  <path style="fill:#a2db44;fill-rule:evenodd" d="m 12,1046.3622 1.839844,0.998 c -0.440996,1.4349 -1.117716,2.3296 -1.865235,2.9668 L 10,1048.3622 l 0.5,-1 1,0.5 0.5,-1.5 z"/>
  <path style="fill:#a2db44;fill-rule:evenodd" d="m 9,1048.8622 1.582031,2.4395 c -0.211109,0.1273 -0.427617,0.2588 -0.6269529,0.3847 -0.2648254,0.1674 -0.5841872,0.3408 -0.9296875,0.4707 L 8.5,1049.3622 l 0.5,-0.5 z"/>
  <path style="fill:#a2db44;fill-rule:evenodd" d="m 13,1043.3622 0,2 -2,0 0,-1 z"/>
 </g>
</svg>
